X: 10781
T: Drab Plateau, The
R: slip jig
M: 9/8
K: Adorian
cBE AGE ~c3|cBG AGE GED|~c3 cBA GBd|fed cAF G3:|
dDD ADB cBG|dDD AGE ~c3|dDD ADB cde fed cAF G3:|
FAd FAd efg|fdA AGE ~c3|FAd FAe FAf|1 afd e^cA d3:|2 afd e^cA ~B3||

